svgs/sharp-solid/wave-square.svg

<svg xmlns="http://www.w3.org/2000/svg" viewBox="0 0 640 512"><!--! Font Awesome Pro 6.6.0 by @fontawesome - https://fontawesome.com License - https://fontawesome.com/license (Commercial License) Copyright 2024 Fonticons, Inc. --><path d="M128 32l32 0 160 0 32 0 0 32 0 352 96 0 0-160 0-32 32 0 128 0 32 0 0 64-32 0-96 0 0 160 0 32-32 0-160 0-32 0 0-32 0-352-96 0 0 160 0 32-32 0L32 288 0 288l0-64 32 0 96 0 0-160 0-32z"/></svg>

<svg xmlns="http://www.w3.org/2000/svg" viewBox="0 0 640 512"><!--! Font Awesome Pro 6.4.0 by @fontawesome - https://fontawesome.com License - https://fontawesome.com/license (Commercial License) Copyright 2023 Fonticons, Inc. --><path d="M128 32h32H320h32V64 416h96V256 224h32H608h32v64H608 512V448v32H480 320 288V448 96H192V256v32H160 32 0V224H32h96V64 32z"/></svg>
